symbols/web/security_update_warning/materialsymbolsoutlined/security_update_warning_wght500fill1_24px.svg

<svg xmlns="http://www.w3.org/2000/svg" height="24" width="24"><path d="M11 13.1V7.125h2V13.1Zm1 3.8q-.425 0-.712-.288Q11 16.325 11 15.9t.288-.712q.287-.288.712-.288t.713.288q.287.287.287.712t-.287.712q-.288.288-.713.288Zm-4.9 1h9.8V6.1H7.1Zm0 5.275q-.95 0-1.612-.662-.663-.663-.663-1.613V3.1q0-.95.663-1.613Q6.15.825 7.1.825h9.8q.95 0 1.613.662.662.663.662 1.613v17.8q0 .95-.662 1.613-.663.662-1.613.662Z"/></svg>

<svg xmlns="http://www.w3.org/2000/svg" height="24" width="24"><path d="M11 13.1V7.125H13V13.1ZM12 16.9Q11.575 16.9 11.288 16.612Q11 16.325 11 15.9Q11 15.475 11.288 15.188Q11.575 14.9 12 14.9Q12.425 14.9 12.713 15.188Q13 15.475 13 15.9Q13 16.325 12.713 16.612Q12.425 16.9 12 16.9ZM7.1 17.9H16.9V6.1H7.1ZM7.1 23.175Q6.15 23.175 5.488 22.513Q4.825 21.85 4.825 20.9V3.1Q4.825 2.15 5.488 1.487Q6.15 0.825 7.1 0.825H16.9Q17.85 0.825 18.513 1.487Q19.175 2.15 19.175 3.1V20.9Q19.175 21.85 18.513 22.513Q17.85 23.175 16.9 23.175Z"/></svg>
